;FLAVOR:Marlin
;TIME:2345
;Filament used: 0.921885m
;Layer height: 0.2
;MINX:108.713
;MINY:114.549
;MINZ:0.2
;MAXX:191.286
;MAXY:174.352
;MAXZ:30
;TARGET_MACHINE.NAME:Creality CR-10 Smart
;Generated with Cura_SteamEngine 5.9.0
M140 S60
M105
M190 S60
M104 S200
M105
M109 S200
M82 ;absolute extrusion mode
M201 X500.00 Y500.00 Z100.00 E5000.00 ;Setup machine max acceleration
M203 X500.00 Y500.00 Z10.00 E50.00 ;Setup machine max feedrate
M204 P500.00 R1000.00 T500.00 ;Setup Print/Retract/Travel acceleration
M205 X8.00 Y8.00 Z0.40 E5.00 ;Setup Jerk
M220 S100 ;Reset Feedrate
M221 S100 ;Reset Flowrate

G28 ;Home

G92 E0 ;Reset Extruder
G1 Z2.0 F3000 ;Move Z Axis up
G1 X10.1 Y20 Z0.28 F5000.0 ;Move to start position
G1 X10.1 Y200.0 Z0.28 F1500.0 E15 ;Draw the first line
G1 X10.4 Y200.0 Z0.28 F5000.0 ;Move to side a little
G1 X10.4 Y20 Z0.28 F1500.0 E30 ;Draw the second line
G92 E0 ;Reset Extruder
G1 Z2.0 F3000 ;Move Z Axis up

G92 E0
G92 E0
G1 F1500 E-6.5
;LAYER_COUNT:150
;LAYER:0
M107
G0 F6000 X154.226 Y148.433 Z0.2
;TYPE:SKIRT
G1 F1500 E0
G1 F1200 X153.262 Y148.547 E0.03229
G1 X152.371 Y148.577 E0.06194
G1 X149.346 Y148.553 E0.16255
G1 X148.283 Y148.574 E0.19792
G1 X147.553 Y148.577 E0.2222
G1 X146.581 Y148.535 E0.25455
G1 X145.616 Y148.407 E0.28693
G1 X144.734 Y148.213 E0.31697
G1 X143.737 Y147.897 E0.35175
G1 X142.856 Y147.529 E0.38351
G1 X142.345 Y147.287 E0.40232
G1 X141.551 Y146.87 E0.43214
G1 X141.033 Y146.57 E0.45205
G1 X140.435 Y146.196 E0.47551
G1 X139.94 Y145.863 E0.49536
G1 X139.262 Y145.367 E0.5233
G1 X139.032 Y145.184 E0.53307
G1 X138.448 Y144.685 E0.55862
G1 X137.879 Y144.161 E0.58435
G1 X137.173 Y143.446 E0.61777
G1 X136.748 Y142.97 E0.63899
G1 X136.213 Y142.321 E0.66697
G1 X135.965 Y141.993 E0.68064
G1 X135.589 Y141.464 E0.70223
G1 X135.25 Y140.954 E0.7226
G1 X134.64 Y139.914 E0.7627
G1 X134.274 Y139.199 E0.78942
G1 X133.913 Y138.416 E0.81809
G1 X133.781 Y138.099 E0.82951
G1 X133.535 Y137.448 E0.85266
G1 X133.376 Y136.979 E0.86913
G1 X133.174 Y136.308 E0.89244
G1 X133.051 Y135.85 E0.90821
G1 X132.925 Y135.323 E0.92623
G1 X132.326 Y132.521 E1.02153
G1 X131.714 Y130.016 E1.1073
G1 X131.468 Y129.077 E1.13959
G1 X131.264 Y128.124 E1.172
G1 X131.145 Y127.159 E1.20434
G1 X131.112 Y126.257 E1.23436
G1 X131.167 Y125.212 E1.26917
G1 X131.307 Y124.248 E1.30157
G1 X131.531 Y123.3 E1.33396
G1 X131.839 Y122.376 E1.36636
G1 X132.226 Y121.483 E1.39873
G1 X132.677 Y120.652 E1.43018
G1 X133.409 Y119.578 E1.47341
G1 X133.935 Y118.919 E1.50145
G1 X134.401 Y118.375 E1.52528
G1 X135.067 Y117.665 E1.55765
G1 X135.766 Y117.04 E1.58884
G1 X136.575 Y116.436 E1.62242
G1 X137.404 Y115.926 E1.65479
G1 X138.276 Y115.491 E1.6872
G1 X139.183 Y115.135 E1.71961
G1 X140.118 Y114.861 E1.75202
G1 X141.072 Y114.671 E1.78437
G1 X142.012 Y114.567 E1.81583
G1 X143.316 Y114.558 E1.8592
G1 X146.304 Y114.726 E1.95874
G1 X148.81 Y114.794 E2.04212
G1 X151.295 Y114.79 E2.12477
G1 X153.822 Y114.715 E2.20885
G1 X155.14 Y114.63 E2.25278
G1 X155.594 Y114.62 E2.26789
G1 X156.664 Y114.559 E2.30353
G1 X157.639 Y114.549 E2.33596
G1 X158.609 Y114.626 E2.36833
G1 X159.536 Y114.781 E2.39959
G1 X160.511 Y115.036 E2.43311
G1 X161.428 Y115.364 E2.4655
G1 X162.249 Y115.741 E2.49554
G1 X163.156 Y116.26 E2.5303
G1 X163.954 Y116.818 E2.56269
G1 X164.706 Y117.451 E2.59538
G1 X165.484 Y118.244 E2.63233
G1 X166.008 Y118.853 E2.65905
G1 X166.464 Y119.418 E2.6832
G1 X167.04 Y120.204 E2.71561
G1 X167.544 Y121.038 E2.74802
G1 X167.971 Y121.912 E2.78038
G1 X168.32 Y122.821 E2.81276
G1 X168.588 Y123.757 E2.84514
G1 X168.771 Y124.714 E2.87755
G1 X168.869 Y125.683 E2.90994
G1 X168.881 Y126.657 E2.94234
G1 X168.807 Y127.629 E2.97476
G1 X168.656 Y128.546 E3.00567
G1 X168.532 Y129.075 E3.02375
G1 X168.344 Y129.798 E3.04859
G1 X167.731 Y132.29 E3.13395
G1 X167.293 Y134.356 E3.20419
G1 X166.973 Y135.753 E3.25186
G1 X166.793 Y136.43 E3.27516
G1 X166.69 Y136.773 E3.28707
G1 X166.454 Y137.467 E3.31145
G1 X166.222 Y138.083 E3.33334
G1 X165.865 Y138.918 E3.36355
G1 X165.689 Y139.285 E3.37708
G1 X165.371 Y139.895 E3.39996
G1 X165.062 Y140.444 E3.42092
G1 X164.421 Y141.449 E3.46056
G1 X164.002 Y142.034 E3.4845
G1 X163.363 Y142.839 E3.51868
G1 X162.95 Y143.313 E3.53959
G1 X162.387 Y143.908 E3.56684
G1 X162.108 Y144.18 E3.5798
G1 X161.649 Y144.6 E3.60049
G1 X161.147 Y145.035 E3.62258
G1 X160.496 Y145.555 E3.65029
G1 X159.656 Y146.137 E3.68428
G1 X159.021 Y146.535 E3.70921
G1 X158.389 Y146.902 E3.73352
G1 X157.941 Y147.141 E3.7504
G1 X157.356 Y147.431 E3.77212
G1 X157.016 Y147.588 E3.78458
G1 X156.146 Y147.94 E3.81579
G1 X155.214 Y148.225 E3.84821
G1 X154.226 Y148.433 E3.88179
G0 F6000 X154.179 Y148.036
G1 F1200 X153.248 Y148.147 E3.91297
G1 X152.374 Y148.177 E3.94206
G1 X149.341 Y148.153 E4.04294
G1 X148.281 Y148.174 E4.0782
G1 X147.57 Y148.177 E4.10185
G1 X146.633 Y148.138 E4.13304
G1 X145.702 Y148.016 E4.16427
G1 X144.82 Y147.822 E4.19431
G1 X143.891 Y147.528 E4.22672
G1 X143.027 Y147.167 E4.25786
G1 X142.531 Y146.933 E4.2761
G1 X141.751 Y146.524 E4.3054
G1 X141.245 Y146.231 E4.32485
G1 X140.658 Y145.864 E4.34787
G1 X140.176 Y145.54 E4.36719
G1 X139.511 Y145.054 E4.39458
G1 X139.292 Y144.88 E4.40389
G1 X138.719 Y144.391 E4.42894
G1 X138.164 Y143.88 E4.45403
G1 X137.458 Y143.165 E4.48745
G1 X137.057 Y142.716 E4.50748
G1 X136.532 Y142.079 E4.53493
G1 X136.291 Y141.761 E4.5482
G1 X135.922 Y141.242 E4.56938
G1 X135.595 Y140.751 E4.589
G1 X134.996 Y139.731 E4.62835
G1 X134.637 Y139.031 E4.65451
G1 X134.282 Y138.263 E4.68265
G1 X134.155 Y137.957 E4.69367
G1 X133.914 Y137.32 E4.71632
G1 X133.759 Y136.863 E4.73237
G1 X133.56 Y136.204 E4.75527
G1 X133.44 Y135.757 E4.77066
G1 X133.316 Y135.239 E4.78838
G1 X132.715 Y132.426 E4.88405
G1 X132.103 Y129.921 E4.96982
G1 X131.859 Y128.993 E5.00173
G1 X131.661 Y128.075 E5.03297
G1 X131.545 Y127.144 E5.06417
G1 X131.512 Y126.242 E5.09419
G1 X131.563 Y125.269 E5.1266
G1 X131.696 Y124.34 E5.15781
G1 X131.911 Y123.426 E5.18904
G1 X132.206 Y122.535 E5.22026
G1 X132.578 Y121.674 E5.25145
G1 X133.029 Y120.843 E5.2829
G1 X133.739 Y119.804 E5.32476
G1 X134.239 Y119.179 E5.35138
G1 X134.693 Y118.648 E5.37461
G1 X135.334 Y117.963 E5.40582
G1 X136.033 Y117.338 E5.437
G1 X136.785 Y116.776 E5.46823
G1 X137.583 Y116.284 E5.49941
G1 X138.423 Y115.863 E5.53066
G1 X139.296 Y115.519 E5.56187
G1 X140.197 Y115.253 E5.59312
G1 X141.116 Y115.069 E5.62429
G1 X142.056 Y114.965 E5.65574
G1 X143.318 Y114.958 E5.69772
G1 X146.293 Y115.126 E5.79683
G1 X148.8 Y115.194 E5.88024
G1 X151.307 Y115.19 E5.96362
G1 X153.834 Y115.115 E6.04771
G1 X155.166 Y115.029 E6.0921
G1 X155.602 Y115.02 E6.10661
G1 X156.669 Y114.959 E6.14215
G1 X157.608 Y114.948 E6.17339
G1 X158.543 Y115.021 E6.20458
G1 X159.47 Y115.176 E6.23584
G1 X160.377 Y115.413 E6.26702
G1 X161.261 Y115.728 E6.29823
G1 X162.082 Y116.105 E6.32828
G1 X162.927 Y116.588 E6.36065
G1 X163.697 Y117.125 E6.39188
G1 X164.42 Y117.731 E6.42325
G1 X165.198 Y118.524 E6.4602
G1 X165.697 Y119.105 E6.48568
G1 X166.142 Y119.655 E6.50921
G1 X166.698 Y120.411 E6.54042
G1 X167.185 Y121.214 E6.57165
G1 X167.598 Y122.056 E6.60285
G1 X167.936 Y122.932 E6.63408
G1 X168.195 Y123.833 E6.66526
G1 X168.373 Y124.755 E6.69649
G1 X168.469 Y125.689 E6.72772
G1 X168.482 Y126.627 E6.75892
G1 X168.412 Y127.564 E6.79017
G1 X168.266 Y128.455 E6.8202
G1 X168.145 Y128.974 E6.83793
G1 X167.957 Y129.697 E6.86277
G1 X167.343 Y132.195 E6.94833
G1 X166.903 Y134.267 E7.01878
G1 X166.586 Y135.651 E7.06601
G1 X166.41 Y136.315 E7.08885
G1 X166.311 Y136.645 E7.10031
G1 X166.08 Y137.326 E7.12423
G1 X165.854 Y137.926 E7.14555
G1 X165.497 Y138.761 E7.17576
G1 X165.334 Y139.1 E7.18827
G1 X165.022 Y139.699 E7.21073
G1 X164.713 Y140.248 E7.23169
G1 X164.096 Y141.216 E7.26987
G1 X163.688 Y141.786 E7.29318
G1 X163.062 Y142.576 E7.3267
G1 X162.659 Y143.038 E7.3471
G1 X162.096 Y143.633 E7.37434
G1 X161.838 Y143.885 E7.38634
G1 X161.387 Y144.298 E7.40668
G1 X160.897 Y144.722 E7.42823
G1 X160.246 Y145.242 E7.45594
G1 X159.443 Y145.798 E7.48842
G1 X158.82 Y146.189 E7.51289
G1 X158.201 Y146.549 E7.5367
G1 X157.763 Y146.783 E7.55322
G1 X157.188 Y147.068 E7.57457
G1 X156.865 Y147.217 E7.5864
G1 X156.029 Y147.557 E7.61641
G1 X155.097 Y147.842 E7.64883
G1 X154.179 Y148.036 E7.68004
G0 F6000 X154.131 Y147.639
G1 F1200 X153.234 Y147.747 E7.71009
G1 X152.377 Y147.777 E7.73861
G1 X149.336 Y147.753 E7.83976
G1 X148.279 Y147.774 E7.87492
G1 X147.586 Y147.777 E7.89797
G1 X146.684 Y147.741 E7.92799
G1 X145.788 Y147.625 E7.95804
G1 X144.906 Y147.431 E7.98808
G1 X144.045 Y147.159 E8.01811
G1 X143.197 Y146.805 E8.04867
G1 X142.717 Y146.579 E8.06632
G1 X141.951 Y146.178 E8.09508
G1 X141.457 Y145.892 E8.11406
G1 X140.881 Y145.532 E8.13665
G1 X140.412 Y145.217 E8.15545
G1 X139.76 Y144.741 E8.1823
G1 X139.552 Y144.576 E8.19113
G1 X138.99 Y144.096 E8.21571
G1 X138.449 Y143.599 E8.24014
G1 X137.743 Y142.884 E8.27356
G1 X137.366 Y142.462 E8.29238
G1 X136.851 Y141.837 E8.31932
G1 X136.617 Y141.529 E8.33218
G1 X136.255 Y141.02 E8.35296
G1 X135.94 Y140.548 E8.37183
G1 X135.352 Y139.548 E8.41042
G1 X135 Y138.863 E8.43603
G1 X134.651 Y138.11 E8.46364
G1 X134.529 Y137.816 E8.47422
G1 X134.293 Y137.191 E8.49644
G1 X134.142 Y136.747 E8.51204
G1 X133.946 Y136.101 E8.53449
G1 X133.829 Y135.664 E8.54954
G1 X133.707 Y135.156 E8.56692
G1 X133.104 Y132.331 E8.66299
G1 X132.492 Y129.826 E8.74876
G1 X132.25 Y128.908 E8.78034
G1 X132.058 Y128.025 E8.81039
G1 X131.945 Y127.129 E8.84043
G1 X131.912 Y126.227 E8.87045
G1 X131.959 Y125.325 E8.90049
G1 X132.086 Y124.431 E8.93052
G1 X132.291 Y123.551 E8.96058
G1 X132.573 Y122.693 E8.99062
G1 X132.93 Y121.864 E9.02064
G1 X133.359 Y121.069 E9.05068
G1 X134.052 Y120.054 E9.09156
G1 X134.543 Y119.439 E9.11773
G1 X134.985 Y118.921 E9.14038
G1 X135.601 Y118.261 E9.17041
G1 X136.273 Y117.658 E9.20044
G1 X136.996 Y117.116 E9.23049
G1 X137.763 Y116.641 E9.2605
G1 X138.57 Y116.235 E9.29055
G1 X139.41 Y115.902 E9.3206
G1 X140.276 Y115.645 E9.35064
G1 X141.161 Y115.466 E9.38068
G1 X142.058 Y115.365 E9.4107
G1 X143.32 Y115.358 E9.45267
G1 X146.282 Y115.526 E9.55135
G1 X148.79 Y115.594 E9.6348
G1 X151.319 Y115.59 E9.71891
G1 X153.846 Y115.515 E9.803
G1 X155.192 Y115.428 E9.84786
G1 X155.61 Y115.42 E9.86176
G1 X156.674 Y115.359 E9.89721
G1 X157.577 Y115.347 E9.92725
G1 X158.478 Y115.416 E9.9573
G1 X159.369 Y115.563 E9.98734
G1 X160.243 Y115.79 E10.01737
G1 X161.094 Y116.092 E10.0474
G1 X161.915 Y116.469 E10.07745
G1 X162.699 Y116.916 E10.10747
G1 X163.441 Y117.432 E10.13753
G1 X164.134 Y118.011 E10.16756
G1 X164.912 Y118.804 E10.20451
G1 X165.386 Y119.356 E10.22871
G1 X165.82 Y119.893 E10.25168
G1 X166.356 Y120.619 E10.28169
G1 X166.826 Y121.391 E10.31175
G1 X167.225 Y122.201 E10.34179
G1 X167.552 Y123.043 E10.37183
G1 X167.802 Y123.91 E10.40184
G1 X167.975 Y124.797 E10.4319
G1 X168.069 Y125.695 E10.46193
G1 X168.083 Y126.598 E10.49197
G1 X168.017 Y127.499 E10.52201
G1 X167.871 Y128.39 E10.55204
G1 X167.758 Y128.873 E10.56854
G1 X167.57 Y129.596 E10.59339
G1 X166.955 Y132.1 E10.67915
G1 X166.513 Y134.178 E10.74981
G1 X166.199 Y135.549 E10.79659
G1 X166.027 Y136.2 E10.81898
G1 X165.932 Y136.517 E10.82999
G1 X165.706 Y137.185 E10.85344
G1 X165.486 Y137.769 E10.8742
G1 X165.136 Y138.588 E10.90382
G1 X164.979 Y138.915 E10.91589
G1 X164.673 Y139.503 E10.93794
G1 X164.364 Y140.052 E10.95889
G1 X163.771 Y140.983 E10.9956
G1 X163.374 Y141.538 E11.0183
G1 X162.761 Y142.313 E11.05116
G1 X162.368 Y142.763 E11.07103
G1 X161.805 Y143.358 E11.09828
G1 X161.567 Y143.59 E11.10933
G1 X161.125 Y143.996 E11.1293
G1 X160.647 Y144.41 E11.15033
G1 X160.018 Y144.913 E11.17712
G1 X159.23 Y145.459 E11.209
G1 X158.619 Y145.843 E11.233
G1 X158.012 Y146.196 E11.25636
G1 X157.585 Y146.425 E11.27247
G1 X157.021 Y146.705 E11.29342
G1 X156.714 Y146.846 E11.30465
G1 X155.878 Y147.186 E11.33467
G1 X155.014 Y147.451 E11.36473
G1 X154.131 Y147.639 E11.39476
G1 F1500 E4.89476
;MESH:Tello_Propeller_Guard.stl
G0 F6000 X148.3 Y137.417
G0 X147.382 Y137.232
;TYPE:WALL-OUTER
G1 F1500 E11.39476
G1 F954.3 X147.16 Y137.132 E11.40494
G1 F956.2 X146.545 Y136.768 E11.43477
G1 X146.11 Y136.452 E11.45721
G1 F963.9 X145.891 Y136.272 E11.46895
G1 F961.9 X145.5 Y135.896 E11.49146
G1 F956.2 X145.143 Y135.494 E11.5139
G1 X144.811 Y135.044 E11.53724
G1 X144.537 Y134.596 E11.55916
G1 F963.9 X144.283 Y134.091 E11.58257
G1 F960 X144.088 Y133.587 E11.60504
G1 F956.2 X144.008 Y133.337 E11.61599
G1 F954.3 X143.873 Y132.8 E11.63915
G1 F952.4 X143.798 Y132.383 E11.65691
G1 X143.767 Y132.019 E11.67222
G1 F956.2 X143.751 Y131.493 E11.69419
G1 F960 X143.782 Y130.919 E11.71808
G1 X143.86 Y130.393 E11.74019
G1 X143.988 Y129.851 E11.76335
G1 X144.071 Y129.585 E11.77493
G1 X144.257 Y129.093 E11.7968
G1 F956.2 X144.497 Y128.596 E11.81984
G1 F923.1 X144.72 Y128.204 E11.83934
G1 X144.58 Y128.035 E11.84882
G1 F958.1 X142.784 Y126.543 E11.94609
G1 X143.105 Y126.157 E11.96701
G1 X144.9 Y127.651 E12.06429
G1 F893.9 X145.17 Y127.922 E12.08138
G1 F837.7 X145.372 Y128.089 E12.09386
G1 X145.222 Y128.305 E12.10639
G1 F895.5 X144.774 Y129.157 E12.14929
G1 F963.9 X144.587 Y129.616 E12.16982
G1 X144.442 Y130.087 E12.19023
G1 X144.33 Y130.586 E12.2114
G1 X144.267 Y131.082 E12.23211
G1 F967.7 X144.249 Y131.708 E12.25793
G1 F960 X144.296 Y132.308 E12.28296
G1 F956.2 X144.39 Y132.825 E12.30489
G1 F960 X144.514 Y133.286 E12.32474
G1 F963.9 X144.731 Y133.877 E12.35081
G1 X145.024 Y134.446 E12.37731
G1 X145.29 Y134.862 E12.39776
G1 F967.7 X145.683 Y135.364 E12.42405
G1 F969.7 X146.213 Y135.896 E12.45496
G1 F967.7 X146.693 Y136.266 E12.47995
G1 F965.8 X147.137 Y136.546 E12.50165
G1 F960 X147.571 Y136.774 E12.52203
G1 F954.3 X147.382 Y137.232 E12.54275
G1 F1500 E6.04275
G0 F6000 X147.267 Y136.928
G0 X148.36 Y137.272
G0 X151.641 Y137.274
G0 X152.614 Y137.231
G1 F1500 E12.54275
G1 F952.4 X152.425 Y136.777 E12.56336
G1 F960 X152.878 Y136.538 E12.58465
G1 F965.8 X153.289 Y136.276 E12.6048
G1 X153.78 Y135.897 E12.63043
G1 X154.221 Y135.461 E12.65606
G1 F963.9 X154.56 Y135.06 E12.6778
G1 F967.7 X154.909 Y134.563 E12.70285
G1 X155.263 Y133.887 E12.73432
G1 F963.9 X155.478 Y133.304 E12.76005
G1 X155.605 Y132.829 E12.78041
G1 F960 X155.693 Y132.353 E12.80053
G1 X155.74 Y131.835 E12.82216
G1 F965.8 X155.745 Y131.342 E12.84253
G1 F960 X155.706 Y130.835 E12.86367
G1 F963.9 X155.593 Y130.216 E12.88973
G1 F967.7 X155.411 Y129.628 E12.91512
G1 F960 X155.22 Y129.151 E12.93648
G1 F963.9 X154.992 Y128.707 E12.95715
G1 X154.932 Y128.612 E12.9618
G1 F895.5 X154.77 Y128.293 E12.97774
G1 F839.2 X154.622 Y128.093 E12.98958
G1 X154.829 Y127.92 E13.00241
G1 F892.2 X155.031 Y127.708 E13.01551
G1 F956.2 X156.891 Y126.157 E13.1166
G1 F960 X157.211 Y126.543 E13.13744
G1 F956.2 X155.383 Y128.065 E13.23673
G1 F892.2 X155.293 Y128.184 E13.24341
G1 F895.5 X155.359 Y128.353 E13.25149
G1 F960 X155.49 Y128.58 E13.26239
G1 X155.616 Y128.825 E13.27384
G1 F956.2 X155.734 Y129.084 E13.28572
G1 F952.4 X155.923 Y129.576 E13.30781
G1 X156.002 Y129.825 E13.31876
G1 F956.2 X156.13 Y130.365 E13.34192
G1 X156.202 Y130.769 E13.35905
G1 X156.237 Y131.164 E13.37561
G1 X156.245 Y131.702 E13.39807
G1 X156.19 Y132.428 E13.42846
G1 X156.127 Y132.783 E13.44351
G1 F958.1 X155.991 Y133.331 E13.46703
G1 F960 X155.913 Y133.574 E13.47764
G1 F961.9 X155.716 Y134.091 E13.50059
G1 X155.466 Y134.582 E13.52346
G1 F963.9 X155.331 Y134.822 E13.53486
G1 X155.193 Y135.032 E13.54526
G1 F956.2 X154.867 Y135.477 E13.56829
G1 X154.51 Y135.882 E13.59082
G1 F963.9 X154.149 Y136.23 E13.61159
G1 F960 X153.895 Y136.447 E13.62548
G1 F954.3 X153.444 Y136.775 E13.6488
G1 X152.836 Y137.131 E13.67827
G1 F952.4 X152.614 Y137.231 E13.68847
G1 F1500 E7.18847
;MESH:NONMESH
G0 F300 X152.614 Y137.231 Z0.4
G0 F6000 X152.733 Y136.928
G0 X153.154 Y137.995
G0 X154.131 Y147.639
;TIME_ELAPSED:27.964535
;LAYER:1
;note -- min layer time used
M106 S85
;TYPE:SKIRT
G1 F1500 E13.68847
G1 F1087.7 X153.234 Y147.747 E13.71852
G1 X152.377 Y147.777 E13.74704
G1 X149.336 Y147.753 E13.84819
G1 X148.279 Y147.774 E13.88335
G1 X147.586 Y147.777 E13.9064
G1 X146.684 Y147.741 E13.93643
G1 X145.788 Y147.625 E13.96648
G1 X144.906 Y147.431 E13.99651
G1 X144.045 Y147.159 E14.02655
